src/components/00-materials/images-raw/Apartment Block.svg

<svg width="96" height="96" viewBox="0 0 96 96" fill="none" xmlns="http://www.w3.org/2000/svg">
<path d="M55.68 73V72.5H55.18H41.0801H40.5801V73V90V90.5H41.0801H55.18H55.68V90V73ZM35.8 32.85V32.35H35.3H30.3H29.8V32.85V37.85V38.35H30.3H35.3H35.8V37.85V32.85ZM35.8 46.2V45.7H35.3H30.3H29.8V46.2V51.15V51.65H30.3H35.3H35.8V51.15V46.2ZM35.8 59.54V59.04H35.3H30.3H29.8V59.54V64.54V65.04H30.3H35.3H35.8V64.54V59.54ZM51.39 32.85V32.35H50.89H45.89H45.39V32.85V37.85V38.35H45.89H50.89H51.39V37.85V32.85ZM51.39 46.2V45.7H50.89H45.89H45.39V46.2V51.15V51.65H45.89H50.89H51.39V51.15V46.2ZM51.39 59.54V59.04H50.89H45.89H45.39V59.54V64.54V65.04H45.89H50.89H51.39V64.54V59.54ZM66.9701 32.85V32.35H66.4701H61.4701H60.9701V32.85V37.85V38.35H61.4701H66.4701H66.9701V37.85V32.85ZM66.9701 46.2V45.7H66.4701H61.4701H60.9701V46.2V51.15V51.65H61.4701H66.4701H66.9701V51.15V46.2ZM66.9701 59.54V59.04H66.4701H61.4701H60.9701V59.54V64.54V65.04H61.4701H66.4701H66.9701V64.54V59.54ZM39.5801 91.5V71.5H56.68V91.5H39.5801ZM28.8 39.35V31.35H36.8V39.35H28.8ZM28.8 52.65V44.7H36.8V52.65H28.8ZM28.8 66.04V58.04H36.8V66.04H28.8ZM44.39 39.35V31.35H52.39V39.35H44.39ZM44.39 52.65V44.7H52.39V52.65H44.39ZM44.39 66.04V58.04H52.39V66.04H44.39ZM59.9701 39.35V31.35H67.9701V39.35H59.9701ZM59.9701 52.65V44.7H67.9701V52.65H59.9701ZM59.9701 66.04V58.04H67.9701V66.04H59.9701Z" stroke="#00008F"/>
<path d="M48.3084 5.50006L48.3009 5.49994L48.2934 5.50004C48.0902 5.50274 47.8898 5.54668 47.7041 5.62919C47.5185 5.7117 47.3515 5.83107 47.2134 5.98004L47.2033 5.99086L47.194 6.00225C47.1378 6.07054 47.0728 6.13107 47.0006 6.18225L47.0006 6.18216L46.9919 6.18859L20.0619 26.1886L18.8482 27.09H20.36H21C21.3978 27.09 21.7794 27.248 22.0607 27.5293C22.342 27.8106 22.5 28.1922 22.5 28.59V90V90.5H23H73.27H73.77V90V28.59C73.77 28.1922 73.9281 27.8106 74.2094 27.5293C74.4907 27.248 74.8722 27.09 75.27 27.09H75.67H77.159L75.9718 26.1913L49.7218 6.32133L49.7219 6.32121L49.7122 6.31421C49.6155 6.24464 49.5297 6.16119 49.4574 6.06655L49.453 6.06074L49.4484 6.05506C49.3104 5.88493 49.1368 5.74707 48.9399 5.65119C48.743 5.55531 48.5274 5.50372 48.3084 5.50006ZM48.3 4.50001L48.3044 4.49998C48.6766 4.49669 49.0448 4.57653 49.3821 4.73368C49.7195 4.89082 50.0175 5.12131 50.2544 5.40831L50.2915 5.45324L50.338 5.48844L77.9516 26.4229C78.0268 26.5776 78.0668 26.7475 78.0683 26.9202C78.07 27.1232 78.0184 27.3231 77.9187 27.5C77.819 27.6768 77.6746 27.8244 77.4999 27.9279C77.3261 28.031 77.1284 28.0868 76.9264 28.09H75.29H74.79V28.59V90.3581C74.7879 90.6615 74.6659 90.9517 74.4508 91.1656C74.2353 91.3798 73.9438 91.5 73.64 91.5H22.64C22.3086 91.5 22.0411 91.3849 21.8515 91.1729C21.6579 90.9565 21.5 90.5872 21.5 90V28.59V28.09H21H19.0936C18.8916 28.0868 18.6939 28.031 18.5201 27.9279C18.3455 27.8244 18.2011 27.6768 18.1013 27.5C18.0016 27.3231 17.95 27.1232 17.9518 26.9202C17.9532 26.7483 17.9929 26.5792 18.0674 26.4252L46.398 5.40152L46.4413 5.36938L46.4767 5.32876C46.7039 5.06849 46.9841 4.85986 47.2986 4.71691C47.6131 4.57396 47.9546 4.49999 48.3 4.50001Z" stroke="#00008F"/>
</svg>

<svg width="96" height="96" viewBox="0 0 96 96" fill="none" xmlns="http://www.w3.org/2000/svg"><path d="M55.68 73v-.5h-15.1v18h15.1V73zM35.8 32.85v-.5h-6v6h6v-5.5zm0 13.35v-.5h-6v5.95h6V46.2zm0 13.34v-.5h-6v6h6v-5.5zm15.59-26.69v-.5h-6v6h6v-5.5zm0 13.35v-.5h-6v5.95h6V46.2zm0 13.34v-.5h-6v6h6v-5.5zm15.58-26.69v-.5h-6v6h6v-5.5zm0 13.35v-.5h-6v5.95h6V46.2zm0 13.34v-.5h-6v6h6v-5.5zM39.58 91.5v-20h17.1v20h-17.1zM28.8 39.35v-8h8v8h-8zm0 13.3V44.7h8v7.95h-8zm0 13.39v-8h8v8h-8zm15.59-26.69v-8h8v8h-8zm0 13.3V44.7h8v7.95h-8zm0 13.39v-8h8v8h-8zm15.58-26.69v-8h8v8h-8zm0 13.3V44.7h8v7.95h-8zm0 13.39v-8h8v8h-8z" stroke="#00008F"/><path d="M48.308 5.5h-.015a1.5 1.5 0 00-1.08.48l-.01.01-.009.012a.998.998 0 01-.193.18h0l-.01.007-26.93 20-1.213.901H21a1.5 1.5 0 011.5 1.5V90.5h51.27V28.59a1.5 1.5 0 011.5-1.5H77.159l-1.187-.899-26.25-19.87h0l-.01-.007a1.21 1.21 0 01-.255-.247l-.004-.006-.005-.006a1.5 1.5 0 00-1.14-.555zm-.008-1h.004a2.5 2.5 0 011.95.908l.038.045.046.035 27.614 20.935a1.16 1.16 0 01-1.026 1.667H74.79v62.268a1.15 1.15 0 01-1.15 1.142h-51c-.331 0-.599-.115-.788-.327-.194-.216-.352-.586-.352-1.173V28.09H19.094a1.16 1.16 0 01-1.027-1.665L46.398 5.402l.043-.033.036-.04A2.42 2.42 0 0148.3 4.5z" stroke="#00008F"/></svg>
